icon/pk/middle-finger.svg

<svg viewBox="0 0 48 48" fill="none" xmlns="http://www.w3.org/2000/svg" height="1em" width="1em">
  <path d="M14.9718 26.9745C11.6511 27.5662 9.99072 29.5748 9.99072 33.0002C9.99072 38.1383 15.1438 44.0002 19.7905 44.0002C24.4372 44.0002 27.1321 44.0002 31.6802 44.0002C36.2283 44.0002 38.9907 40.1496 38.9907 37.0603C38.9907 32.7099 38.9907 28.3596 38.9907 24.0093C38.9907 22.3524 37.6476 21.0093 35.9907 21.0093H35.9816C34.3298 21.0093 32.9907 22.3484 32.9907 24.0002" stroke="black" stroke-width="4" stroke-linecap="round"/>
  <path d="M14.9717 30.0401V21.013C14.9717 19.3546 16.3161 18.0103 17.9744 18.0103C17.9755 18.0103 17.9765 18.0103 17.9775 18.0103C19.6381 18.012 20.9834 19.3586 20.9834 21.0192V25.0229" stroke="black" stroke-width="4" stroke-linecap="round"/>
  <path d="M20.9834 24.0083V7.01549C20.9834 5.35008 22.3335 4 23.9989 4C25.6643 4 27.0144 5.35008 27.0144 7.01549V24.0083" stroke="black" stroke-width="4" stroke-linecap="round" stroke-linejoin="round"/>
  <path d="M26.9907 23.7158V21.0034C26.9907 19.3466 28.3339 18.0034 29.9907 18.0034C31.6476 18.0034 32.9907 19.3466 32.9907 21.0034V24.0034" stroke="black" stroke-width="4" stroke-linecap="round" stroke-linejoin="round"/>
</svg>

<svg width="48" height="48" fill="none" xmlns="http://www.w3.org/2000/svg"><path d="M14.972 26.974c-3.32.592-4.981 2.6-4.981 6.026 0 5.138 5.153 11 9.8 11h11.89c4.547 0 7.31-3.85 7.31-6.94V24.01a3 3 0 0 0-3-3h-.01a2.99 2.99 0 0 0-2.99 2.99" stroke="#000" stroke-width="4" stroke-linecap="round"/><path d="M14.972 30.04v-9.027a3.003 3.003 0 0 1 3.002-3.003h.003a3.009 3.009 0 0 1 3.006 3.01v4.003" stroke="#000" stroke-width="4" stroke-linecap="round"/><path d="M20.983 24.008V7.015a3.016 3.016 0 0 1 6.031 0v16.993" stroke="#000" stroke-width="4" stroke-linecap="round" stroke-linejoin="round"/><path d="M26.99 23.716v-2.713a3 3 0 0 1 6 0v3" stroke="#000" stroke-width="4" stroke-linecap="round" stroke-linejoin="round"/></svg>
